X:1
T:Title
L:1/8
M:6/8
I:linebreak $
K:G
V:1 treble nm="Voice"
V:1
"G" DGB d2 B |"C" e2 B"G" dBG | DGB d2 B |"C" e2 B cAF |"D" DFA"C" c2 A |"D" d2 A"C" cAF | %6
"D" DFA cBA |1"G" G3 d3 :|2"G" G3 g2 d |:"G" g2 B d2 G | B3- B2 G |"D" DEF"G" GAB |"C" c3- c2 d | %13
"C" e2 A c2 G |"D" F3- F2 d | fed cBA |1"G" B3- B2 d :|2"G" G3 d3 |] %18
